src/resources/svg/icons/user-plus.svg

<svg width="20" height="16" viewBox="0 0 20 16" fill="none" xmlns="http://www.w3.org/2000/svg">
    <path fill="currentColor"
          d="M19.5 6.5H17.5V4.5C17.5 4.225 17.275 4 17 4H16C15.725 4 15.5 4.225 15.5 4.5V6.5H13.5C13.225 6.5 13 6.725 13 7V8C13 8.275 13.225 8.5 13.5 8.5H15.5V10.5C15.5 10.775 15.725 11 16 11H17C17.275 11 17.5 10.775 17.5 10.5V8.5H19.5C19.775 8.5 20 8.275 20 8V7C20 6.725 19.775 6.5 19.5 6.5ZM7 8C9.20938 8 11 6.20937 11 4C11 1.79063 9.20938 0 7 0C4.79063 0 3 1.79063 3 4C3 6.20937 4.79063 8 7 8ZM9.8 9H9.27812C8.58437 9.31875 7.8125 9.5 7 9.5C6.1875 9.5 5.41875 9.31875 4.72188 9H4.2C1.88125 9 0 10.8813 0 13.2V14.5C0 15.3281 0.671875 16 1.5 16H12.5C13.3281 16 14 15.3281 14 14.5V13.2C14 10.8813 12.1187 9 9.8 9Z"/>
</svg>

<svg fill="none" viewBox="0 0 20 16" xmlns="http://www.w3.org/2000/svg">
    <path d="m19.5 6.5h-2v-2c0-0.275-0.225-0.5-0.5-0.5h-1c-0.275 0-0.5 0.225-0.5 0.5v2h-2c-0.275 0-0.5 0.225-0.5 0.5v1c0 0.275 0.225 0.5 0.5 0.5h2v2c0 0.275 0.225 0.5 0.5 0.5h1c0.275 0 0.5-0.225 0.5-0.5v-2h2c0.275 0 0.5-0.225 0.5-0.5v-1c0-0.275-0.225-0.5-0.5-0.5zm-12.5 1.5c2.2094 0 4-1.7906 4-4s-1.7906-4-4-4c-2.2094 0-4 1.7906-4 4s1.7906 4 4 4zm2.8 1h-0.52188c-0.69375 0.31875-1.4656 0.5-2.2781 0.5s-1.5812-0.18125-2.2781-0.5h-0.52188c-2.3188 0-4.2 1.8813-4.2 4.2v1.3c0 0.8281 0.67188 1.5 1.5 1.5h11c0.8281 0 1.5-0.6719 1.5-1.5v-1.3c0-2.3187-1.8813-4.2-4.2-4.2z" fill="currentColor"/>
</svg>
